X:75
T:Alexander's
R:hornpipe
S:Frankie Kennedy and Mairead Ni Mhaonaigh
M:C
L:1/8
K:D
(3ABc|:dAFA DFAd|fdcd A2ef|gfed edcd|(3efe (3dcB A2 (3ABc|\
dAFA DFAd|fdcd A2ef|gfed cABc|1 d/d/d f2 d2 (3ABc:|2 d/d/d f2 d2AG|:\
[AF]AdA [AF]AdA|[BG]BdB [BG]BdB|Acec Acec|dfaf (3dfd (3BAG|\
[AF]AdA [AF]AdA|[BG]BdB [BG]BdB|Aceg fdec|1 d/d/d f2 d2AG:|2 d/d/d f2 d2 (3ABc|\
